_inc/images/systems/logos/gamate.svg

<svg viewBox="0 0 264 29" xmlns="http://www.w3.org/2000/svg">
    <path d="M39.307.624H33.49l-1.418 2.205c-.755-1.028-1.856-1.759-3.304-2.195C27.32.2 25.327-.012 22.787 0 16.991.061 12.088 1.396 8.079 4.005S1.501 10.133.375 14.563c-.572 2.474-.489 4.712.247 6.714.736 2.001 2.064 3.646 3.982 4.935 2.839 1.866 6.907 2.794 12.204 2.787 2.483.003 4.659-.231 6.529-.706 1.87-.476 3.466-1.211 4.788-2.206l.576 2.288h4.922l1.627-6.865c.356-1.426.602-2.317.739-2.673.136-.355.328-.601.573-.738.2-.167.497-.292.893-.374.396-.083.94-.126 1.631-.126h1.678l.897-3.786H21.302l-.897 3.786h2.349c.692-.002 1.217.035 1.575.11.359.075.596.205.711.39.182.137.256.383.224.738-.032.356-.208 1.247-.529 2.673l-.069.292c-.258 1.118-.816 1.94-1.675 2.465-.858.526-2.067.785-3.624.78-1.039-.001-1.989-.144-2.849-.432a6.245 6.245 0 0 1-2.228-1.274c-1.057-.94-1.72-2.097-1.988-3.469-.269-1.372-.163-3.059.318-5.061.847-3.527 2.275-6.217 4.282-8.065 2.008-1.849 4.515-2.78 7.521-2.793 1.406.004 2.611.214 3.612.629 1.002.416 1.751 1.01 2.248 1.784.405.591.657 1.24.755 1.945.099.706.081 1.666-.053 2.881h5.816Zm20.98 0L45.828 21.51c-.84 1.257-1.59 2.093-2.251 2.507-.661.415-1.552.605-2.674.572h-1.79l-.897 3.786h17.003l.897-3.786h-2.405c-.942.003-1.599-.076-1.971-.239-.371-.163-.508-.43-.411-.801.008-.103.078-.261.21-.473.132-.212.484-.735 1.056-1.566l1.464-2.163h11.466l.438 2.163c.151.83.239 1.356.262 1.577a1.28 1.28 0 0 1-.038.546c-.067.385-.303.643-.708.774-.405.132-1.14.192-2.204.182h-2.181l-.897 3.786H81.45l.898-3.786h-1.846a8.709 8.709 0 0 1-1.462-.115c-.433-.074-.752-.174-.956-.301-.199-.161-.404-.485-.616-.972a7.598 7.598 0 0 1-.487-1.691L73.263.624Zm4.576 15.145h-8.446l6.582-9.361ZM126.08 5.118l-3.688 15.56c-.356 1.427-.602 2.318-.739 2.673-.136.356-.328.602-.573.739-.199.166-.497.291-.893.374-.396.084-.94.125-1.631.125h-1.901l-.898 3.786h21.757l.898-3.786h-3.133c-.69 0-1.214-.041-1.571-.125-.356-.083-.595-.208-.715-.374-.176-.158-.248-.415-.216-.769.032-.356.205-1.237.522-2.643l2.929-12.356c.355-1.427.602-2.318.738-2.674.137-.355.328-.601.574-.738.199-.167.496-.292.892-.374.397-.084.94-.126 1.631-.126h3.132l.898-3.786h-21.757l-9.923 16.851L110.535.624H88.777L87.88 4.41h3.132c.691 0 1.215.042 1.571.126.357.082.596.207.715.374.182.137.256.383.224.738-.032.356-.208 1.247-.529 2.674l-2.929 12.356c-.351 1.406-.595 2.287-.731 2.643-.137.354-.331.611-.581.769-.199.166-.497.291-.893.374-.396.084-.939.125-1.631.125h-3.132l-.897 3.786H99.37l.897-3.786h-1.902c-.69 0-1.214-.041-1.571-.125-.357-.083-.595-.208-.715-.374-.181-.137-.255-.383-.224-.739.032-.355.208-1.246.529-2.673l3.689-15.56 3.156 23.257h8.781ZM160.352.624 145.893 21.51c-.84 1.257-1.591 2.093-2.252 2.507-.661.415-1.552.605-2.673.572h-1.79l-.897 3.786h17.003l.897-3.786h-2.405c-.942.003-1.599-.076-1.971-.239-.371-.163-.508-.43-.411-.801.008-.103.078-.261.21-.473.132-.212.484-.735 1.056-1.566l1.464-2.163h11.466l.438 2.163c.151.83.239 1.356.262 1.577.024.221.01.402-.038.546-.068.385-.304.643-.708.774-.405.132-1.14.192-2.204.182h-2.181l-.898 3.786h21.254l.897-3.786h-1.845a8.7 8.7 0 0 1-1.462-.115c-.434-.074-.752-.174-.956-.301-.199-.161-.404-.485-.616-.972a7.546 7.546 0 0 1-.487-1.691L173.328.624Zm4.576 15.145h-8.446l6.582-9.361ZM188.99.624l-4.47 8.929 5.393 1.889c.545-2.427 1.562-4.219 3.05-5.372 1.487-1.154 3.469-1.706 5.944-1.66l-3.856 16.268c-.356 1.427-.602 2.318-.739 2.673-.137.356-.328.602-.574.739-.199.166-.496.291-.892.374-.396.084-.94.125-1.631.125h-3.132l-.898 3.786h23.212l.897-3.786h-3.132c-.691 0-1.215-.041-1.571-.125-.357-.083-.596-.208-.715-.374-.181-.137-.256-.383-.224-.739.032-.355.208-1.246.529-2.673l3.856-16.268h1.175c2.071.002 3.513.509 4.324 1.519.811 1.011.981 2.516.51 4.515l-.237.998 6.119-1.185-1.67-9.768Zm73.962 0h-37.077l-.898 3.786h3.132c.692 0 1.215.042 1.572.126.357.082.595.207.715.374.181.137.255.383.224.738-.033.356-.209 1.247-.529 2.674l-2.93 12.356c-.355 1.427-.601 2.318-.738 2.673-.137.356-.328.602-.574.739-.199.166-.496.291-.893.374-.396.084-.939.125-1.63.125h-3.132l-.898 3.786h37.077l5.837-9.874-7.669-1.484c-.317 1.124-.584 1.965-.801 2.523a9.105 9.105 0 0 1-.781 1.554c-.484.784-1.156 1.473-2.014 2.065a7.923 7.923 0 0 1-2.737 1.222c-.453.1-.936.161-1.448.183-.512.02-1.668.029-3.467.025h-6.152l2.041-8.612h1.734c1.557-.011 2.619.27 3.184.843.566.572.692 1.498.377 2.776l-.198.833h4.922l2.959-12.482h-4.922c-.185.785-.35 1.357-.497 1.716-.147.36-.319.661-.516.905-.417.581-.98 1.011-1.689 1.29-.71.279-1.568.418-2.574.416h-1.902l1.864-7.864h7.383c.925-.001 1.617.012 2.075.037a7.73 7.73 0 0 1 1.13.13c.673.128 1.259.331 1.757.608.498.279.884.617 1.158 1.014.408.637.654 1.371.736 2.206.082.834-.012 1.818-.281 2.954L264 10.171Z" style="font:oblique 800 40px/125% &quot;Clarendon T OT Extra Bold&quot;;text-align:start;writing-mode:lr-tb;text-anchor:start;letter-spacing:0;word-spacing:0;fill-opacity:1;stroke:none;fill:#fff"/>
</svg>

<?xml version="1.0" encoding="utf-8"?>
<svg id="svg2" version="1.1" viewBox="0 0 264 29" xmlns="http://www.w3.org/2000/svg">
  <path d="M 39.307 0.624 L 33.49 0.624 L 32.072 2.829 C 31.317 1.801 30.216 1.07 28.768 0.634 C 27.32 0.2 25.327 -0.012 22.787 0 C 16.991 0.061 12.088 1.396 8.079 4.005 C 4.07 6.614 1.501 10.133 0.375 14.563 C -0.197 17.037 -0.114 19.275 0.622 21.277 C 1.358 23.278 2.686 24.923 4.604 26.212 C 7.443 28.078 11.511 29.006 16.808 28.999 C 19.291 29.002 21.467 28.768 23.337 28.293 C 25.207 27.817 26.803 27.082 28.125 26.087 L 28.701 28.375 L 33.623 28.375 L 35.25 21.51 C 35.606 20.084 35.852 19.193 35.989 18.837 C 36.125 18.482 36.317 18.236 36.562 18.099 C 36.762 17.932 37.059 17.807 37.455 17.725 C 37.851 17.642 38.395 17.599 39.086 17.599 L 40.764 17.599 L 41.661 13.813 L 21.302 13.813 L 20.405 17.599 L 22.754 17.599 C 23.446 17.597 23.971 17.634 24.329 17.709 C 24.688 17.784 24.925 17.914 25.04 18.099 C 25.222 18.236 25.296 18.482 25.264 18.837 C 25.232 19.193 25.056 20.084 24.735 21.51 L 24.666 21.802 C 24.408 22.92 23.85 23.742 22.991 24.267 C 22.133 24.793 20.924 25.052 19.367 25.047 C 18.328 25.046 17.378 24.903 16.518 24.615 C 15.659 24.329 14.916 23.903 14.29 23.341 C 13.233 22.401 12.57 21.244 12.302 19.872 C 12.033 18.5 12.139 16.813 12.62 14.811 C 13.467 11.284 14.895 8.594 16.902 6.746 C 18.91 4.897 21.417 3.966 24.423 3.953 C 25.829 3.957 27.034 4.167 28.035 4.582 C 29.037 4.998 29.786 5.592 30.283 6.366 C 30.688 6.957 30.94 7.606 31.038 8.311 C 31.137 9.017 31.119 9.977 30.985 11.192 L 36.801 11.192 Z" style="font: oblique 800 40px / 125% &quot;Clarendon T OT Extra Bold&quot;; text-align: start; writing-mode: lr-tb; text-anchor: start; letter-spacing: 0px; word-spacing: 0px; fill-opacity: 1; stroke: none; fill: rgb(255, 255, 255);" id="path2994"/>
  <path d="M 60.287 0.624 L 45.828 21.51 C 44.988 22.767 44.238 23.603 43.577 24.017 C 42.916 24.432 42.025 24.622 40.903 24.589 L 39.113 24.589 L 38.216 28.375 L 55.219 28.375 L 56.116 24.589 L 53.711 24.589 C 52.769 24.592 52.112 24.513 51.74 24.35 C 51.369 24.187 51.232 23.92 51.329 23.549 C 51.337 23.446 51.407 23.288 51.539 23.076 C 51.671 22.864 52.023 22.341 52.595 21.51 L 54.059 19.347 L 65.525 19.347 L 65.963 21.51 C 66.114 22.34 66.202 22.866 66.225 23.087 C 66.249 23.308 66.236 23.489 66.187 23.633 C 66.12 24.018 65.884 24.276 65.479 24.407 C 65.074 24.539 64.339 24.599 63.275 24.589 L 61.094 24.589 L 60.197 28.375 L 81.45 28.375 L 82.348 24.589 L 80.502 24.589 C 79.961 24.587 79.473 24.55 79.04 24.474 C 78.607 24.4 78.288 24.3 78.084 24.173 C 77.885 24.012 77.68 23.688 77.468 23.201 C 77.257 22.713 77.094 22.149 76.981 21.51 L 73.263 0.624 Z M 64.863 15.769 L 56.417 15.769 L 62.999 6.408 Z" style="font: oblique 800 40px / 125% &quot;Clarendon T OT Extra Bold&quot;; text-align: start; writing-mode: lr-tb; text-anchor: start; letter-spacing: 0px; word-spacing: 0px; fill-opacity: 1; stroke: none; fill: rgb(255, 255, 255);" id="path2996"/>
  <path d="M 126.08 5.118 L 122.392 20.678 C 122.036 22.105 121.79 22.996 121.653 23.351 C 121.517 23.707 121.325 23.953 121.08 24.09 C 120.881 24.256 120.583 24.381 120.187 24.464 C 119.791 24.548 119.247 24.589 118.556 24.589 L 116.655 24.589 L 115.757 28.375 L 137.514 28.375 L 138.412 24.589 L 135.279 24.589 C 134.589 24.589 134.065 24.548 133.708 24.464 C 133.352 24.381 133.113 24.256 132.993 24.09 C 132.817 23.932 132.745 23.675 132.777 23.321 C 132.809 22.965 132.982 22.084 133.299 20.678 L 136.228 8.322 C 136.583 6.895 136.83 6.004 136.966 5.648 C 137.103 5.293 137.294 5.047 137.54 4.91 C 137.739 4.743 138.036 4.618 138.432 4.536 C 138.829 4.452 139.372 4.41 140.063 4.41 L 143.195 4.41 L 144.093 0.624 L 122.336 0.624 L 112.413 17.475 L 110.535 0.624 L 88.777 0.624 L 87.88 4.41 L 91.012 4.41 C 91.703 4.41 92.227 4.452 92.583 4.536 C 92.94 4.618 93.179 4.743 93.298 4.91 C 93.48 5.047 93.554 5.293 93.522 5.648 C 93.49 6.004 93.314 6.895 92.993 8.322 L 90.064 20.678 C 89.713 22.084 89.469 22.965 89.333 23.321 C 89.196 23.675 89.002 23.932 88.752 24.09 C 88.553 24.256 88.255 24.381 87.859 24.464 C 87.463 24.548 86.92 24.589 86.228 24.589 L 83.096 24.589 L 82.199 28.375 L 99.37 28.375 L 100.267 24.589 L 98.365 24.589 C 97.675 24.589 97.151 24.548 96.794 24.464 C 96.437 24.381 96.199 24.256 96.079 24.09 C 95.898 23.953 95.824 23.707 95.855 23.351 C 95.887 22.996 96.063 22.105 96.384 20.678 L 100.073 5.118 L 103.229 28.375 L 112.01 28.375 Z" style="font: oblique 800 40px / 125% &quot;Clarendon T OT Extra Bold&quot;; text-align: start; writing-mode: lr-tb; text-anchor: start; letter-spacing: 0px; word-spacing: 0px; fill-opacity: 1; stroke: none; fill: rgb(255, 255, 255);" id="path2998"/>
  <path d="M 160.352 0.624 L 145.893 21.51 C 145.053 22.767 144.302 23.603 143.641 24.017 C 142.98 24.432 142.089 24.622 140.968 24.589 L 139.178 24.589 L 138.281 28.375 L 155.284 28.375 L 156.181 24.589 L 153.776 24.589 C 152.834 24.592 152.177 24.513 151.805 24.35 C 151.434 24.187 151.297 23.92 151.394 23.549 C 151.402 23.446 151.472 23.288 151.604 23.076 C 151.736 22.864 152.088 22.341 152.66 21.51 L 154.124 19.347 L 165.59 19.347 L 166.028 21.51 C 166.179 22.34 166.267 22.866 166.29 23.087 C 166.314 23.308 166.3 23.489 166.252 23.633 C 166.184 24.018 165.948 24.276 165.544 24.407 C 165.139 24.539 164.404 24.599 163.34 24.589 L 161.159 24.589 L 160.261 28.375 L 181.515 28.375 L 182.412 24.589 L 180.567 24.589 C 180.025 24.587 179.538 24.55 179.105 24.474 C 178.671 24.4 178.353 24.3 178.149 24.173 C 177.95 24.012 177.745 23.688 177.533 23.201 C 177.321 22.713 177.159 22.149 177.046 21.51 L 173.328 0.624 Z M 164.928 15.769 L 156.482 15.769 L 163.064 6.408 Z" style="font: oblique 800 40px / 125% &quot;Clarendon T OT Extra Bold&quot;; text-align: start; writing-mode: lr-tb; text-anchor: start; letter-spacing: 0px; word-spacing: 0px; fill-opacity: 1; stroke: none; fill: rgb(255, 255, 255);" id="path3000"/>
  <path d="M 188.99 0.624 L 184.52 9.553 L 189.913 11.442 C 190.458 9.015 191.475 7.223 192.963 6.07 C 194.45 4.916 196.432 4.364 198.907 4.41 L 195.051 20.678 C 194.695 22.105 194.449 22.996 194.312 23.351 C 194.175 23.707 193.984 23.953 193.738 24.09 C 193.539 24.256 193.242 24.381 192.846 24.464 C 192.45 24.548 191.906 24.589 191.215 24.589 L 188.083 24.589 L 187.185 28.375 L 210.397 28.375 L 211.294 24.589 L 208.162 24.589 C 207.471 24.589 206.947 24.548 206.591 24.464 C 206.234 24.381 205.995 24.256 205.876 24.09 C 205.695 23.953 205.62 23.707 205.652 23.351 C 205.684 22.996 205.86 22.105 206.181 20.678 L 210.037 4.41 L 211.212 4.41 C 213.283 4.412 214.725 4.919 215.536 5.929 C 216.347 6.94 216.517 8.445 216.046 10.444 L 215.809 11.442 L 221.928 10.257 L 220.258 0.489 Z" style="font: oblique 800 40px / 125% &quot;Clarendon T OT Extra Bold&quot;; text-align: start; writing-mode: lr-tb; text-anchor: start; letter-spacing: 0px; word-spacing: 0px; fill-opacity: 1; stroke: none; fill: rgb(255, 255, 255);" id="path3002"/>
  <path d="M 262.952 0.624 L 225.875 0.624 L 224.977 4.41 L 228.109 4.41 C 228.801 4.41 229.324 4.452 229.681 4.536 C 230.038 4.618 230.276 4.743 230.396 4.91 C 230.577 5.047 230.651 5.293 230.62 5.648 C 230.587 6.004 230.411 6.895 230.091 8.322 L 227.161 20.678 C 226.806 22.105 226.56 22.996 226.423 23.351 C 226.286 23.707 226.095 23.953 225.849 24.09 C 225.65 24.256 225.353 24.381 224.956 24.464 C 224.56 24.548 224.017 24.589 223.326 24.589 L 220.194 24.589 L 219.296 28.375 L 256.373 28.375 L 262.21 18.501 L 254.541 17.017 C 254.224 18.141 253.957 18.982 253.74 19.54 C 253.522 20.097 253.262 20.615 252.959 21.094 C 252.475 21.878 251.803 22.567 250.945 23.159 C 250.087 23.751 249.175 24.158 248.208 24.381 C 247.755 24.481 247.272 24.542 246.76 24.564 C 246.248 24.584 245.092 24.593 243.293 24.589 L 237.141 24.589 L 239.182 15.977 L 240.916 15.977 C 242.473 15.966 243.535 16.247 244.1 16.82 C 244.666 17.392 244.792 18.318 244.477 19.596 L 244.279 20.429 L 249.201 20.429 L 252.16 7.947 L 247.238 7.947 C 247.053 8.732 246.888 9.304 246.741 9.663 C 246.594 10.023 246.422 10.324 246.225 10.568 C 245.808 11.149 245.245 11.579 244.536 11.858 C 243.826 12.137 242.968 12.276 241.962 12.274 L 240.06 12.274 L 241.924 4.41 L 249.307 4.41 C 250.232 4.409 250.924 4.422 251.382 4.447 C 251.84 4.472 252.216 4.515 252.512 4.577 C 253.185 4.705 253.771 4.908 254.269 5.185 C 254.767 5.464 255.153 5.802 255.427 6.199 C 255.835 6.836 256.081 7.57 256.163 8.405 C 256.245 9.239 256.151 10.223 255.882 11.359 L 264 10.171 Z" style="font: oblique 800 40px / 125% &quot;Clarendon T OT Extra Bold&quot;; text-align: start; writing-mode: lr-tb; text-anchor: start; letter-spacing: 0px; word-spacing: 0px; fill-opacity: 1; stroke: none; fill: rgb(255, 255, 255);" id="path3004"/>
</svg>
